shared/images/iconfont/90-kb-iconfont-shh-16.svg

<?xml version="1.0" encoding="UTF-8"?>
<svg width="16px" height="16px" viewBox="0 0 16 16" version="1.1" xmlns="http://www.w3.org/2000/svg" xmlns:xlink="http://www.w3.org/1999/xlink">
    <!-- Generator: sketchtool 57.1 (101010) - https://sketch.com -->
    <title>481B983C-3006-4673-87D9-1BC81A34E43C</title>
    <desc>Created with sketchtool.</desc>
    <g id="Symbols" stroke="none" stroke-width="1" fill="none" fill-rule="evenodd">
        <g id="90-kb-iconfont-shh-16">
            <g>
                <rect id="icon-area" opacity="0" x="0" y="0" width="16" height="16"></rect>
                <path d="M14.6260376,11.1915894 C15.0402512,11.1915894 15.3760376,11.5273758 15.3760376,11.9415894 C15.3760376,12.3558029 15.0402512,12.6915894 14.6260376,12.6915894 C13.0417202,12.6915894 11.1954929,12.9122115 9.09013344,13.355498 C6.99003243,13.7976773 4.97149464,14.2598265 3.05943815,15.1252359 C2.68207687,15.2960321 2.23770744,15.1285781 2.06691123,14.7512168 C1.89611503,14.3738555 2.0635691,13.9294861 2.44093038,13.7586899 C4.452702,12.8481487 6.57503104,12.3521681 8.78108238,11.8876807 C10.9818752,11.4243006 12.9292677,11.1915894 14.6260376,11.1915894 Z M3.43,6.75 C3.93,6.75 4.43,6.89 4.86,7.15 C5.02,7.25 5.14,7.43 5.14,7.64 C5.14,7.95 4.89,8.2 4.57,8.2 C4.47,8.2 4.36,8.17 4.28,8.11 C4.03,7.96 3.73,7.85 3.43,7.85 C3.11,7.85 2.92,8 2.92,8.21 C2.92,8.39 3.18,8.52 3.53,8.67 C4.11,8.9 4.92,9.23 4.92,10.08 C4.92,11.01 4.16,11.82 2.89,11.82 C2.31,11.82 1.74,11.66 1.29,11.38 C1.12,11.28 1,11.09 1,10.88 C1,10.55 1.27,10.29 1.6,10.29 C1.72,10.29 1.83,10.32 1.92,10.38 C2.21,10.58 2.59,10.73 2.96,10.73 C3.27,10.73 3.48,10.55 3.48,10.33 C3.48,10.11 3.18,9.97 2.82,9.81 C2.25,9.57 1.51,9.24 1.51,8.45 C1.51,7.57 2.17,6.75 3.43,6.75 Z M7.24,4 C7.69,4 8.03,4.39 7.93,4.86 L7.56,6.51 C7.88,6.16 8.35,5.8 8.97,5.8 C9.75,5.8 10.21,6.24 10.21,6.85 C10.21,6.94 10.19,7.09 10.17,7.19 L9.5,10.28 C9.43,10.59 9.14,10.83 8.81,10.83 C8.36,10.83 8.01,10.44 8.12,9.98 L8.61,7.73 C8.62,7.68 8.65,7.54 8.65,7.49 C8.65,7.2 8.43,7.08 8.14,7.08 C7.82,7.08 7.52,7.35 7.32,7.59 L6.74,10.28 C6.67,10.59 6.38,10.83 6.05,10.83 C5.6,10.83 5.25,10.44 5.36,9.97 L6.55,4.55 C6.62,4.24 6.9,4 7.24,4 Z M12.42,3 C12.87,3 13.21,3.39 13.11,3.86 L12.74,5.51 C13.06,5.16 13.53,4.8 14.15,4.8 C14.93,4.8 15.39,5.24 15.39,5.85 C15.39,5.94 15.37,6.09 15.35,6.19 L14.68,9.28 C14.61,9.59 14.32,9.83 13.99,9.83 C13.54,9.83 13.19,9.44 13.3,8.98 L13.79,6.73 C13.8,6.68 13.83,6.54 13.83,6.49 C13.83,6.2 13.61,6.08 13.32,6.08 C13,6.08 12.7,6.35 12.5,6.59 L11.92,9.28 C11.85,9.59 11.56,9.83 11.23,9.83 C10.78,9.83 10.43,9.44 10.54,8.97 L11.73,3.55 C11.8,3.24 12.08,3 12.42,3 Z" id="Combined-Shape" fill="#000000"></path>
            </g>
        </g>
    </g>
</svg>

<svg xmlns="http://www.w3.org/2000/svg" width="16" height="16" viewBox="0 0 16 16">
    <path fill="#000" fill-rule="evenodd" d="M1.29 11.38a.588.588 0 0 1-.29-.5c0-.33.27-.59.6-.59.12 0 .23.03.32.09.29.2.67.35 1.04.35.31 0 .52-.18.52-.4 0-.22-.3-.36-.66-.52-.57-.24-1.31-.57-1.31-1.36 0-.88.66-1.7 1.92-1.7.5 0 1 .14 1.43.4.16.1.28.28.28.49 0 .31-.25.56-.57.56-.1 0-.21-.03-.29-.09-.25-.15-.55-.26-.85-.26-.32 0-.51.15-.51.36 0 .18.26.31.61.46.58.23 1.39.56 1.39 1.41 0 .93-.76 1.74-2.03 1.74-.58 0-1.15-.16-1.6-.44zm7.52-.55c-.45 0-.8-.39-.69-.85l.49-2.25c.01-.05.04-.19.04-.24 0-.29-.22-.41-.51-.41-.32 0-.62.27-.82.51l-.58 2.69c-.07.31-.36.55-.69.55-.45 0-.8-.39-.69-.86l1.19-5.42c.07-.31.35-.55.69-.55.45 0 .79.39.69.86l-.37 1.65c.32-.35.79-.71 1.41-.71.78 0 1.24.44 1.24 1.05 0 .09-.02.24-.04.34l-.67 3.09c-.07.31-.36.55-.69.55zm5.18-1c-.45 0-.8-.39-.69-.85l.49-2.25c.01-.05.04-.19.04-.24 0-.29-.22-.41-.51-.41-.32 0-.62.27-.82.51l-.58 2.69c-.07.31-.36.55-.69.55-.45 0-.8-.39-.69-.86l1.19-5.42c.07-.31.35-.55.69-.55.45 0 .79.39.69.86l-.37 1.65c.32-.35.79-.71 1.41-.71.78 0 1.24.44 1.24 1.05 0 .09-.02.24-.04.34l-.67 3.09c-.07.31-.36.55-.69.55zm.636 1.362a.75.75 0 1 1 0 1.5c-1.584 0-3.43.22-5.536.663-2.1.443-4.119.905-6.03 1.77a.75.75 0 1 1-.62-1.366c2.013-.91 4.135-1.407 6.341-1.871 2.2-.464 4.148-.696 5.845-.696z"/>
</svg>
